X:42
T:Gesta dera Gagnolis
N:transcription d'oreille
A:Pyrnes
D:Stille Volk
O:France
Z:<anamnese@laposte.net> -- http://anamnese.fr.st
M:4/4
L:1/8
Q:1/4=140
K:C
A>B cd ed cB |1 A>B cd ef e2 :|2 A>B cd BG A2 |
|: Ae Ae Ae e2 |1 d>e cB cA Bc :|2 d>e cB cA A2 ||
